!!!OTL: Quartett in d für 2 Violinen, Viola und Violoncello, 4. Satz, KV 421/04
!!!system-decoration: [(s1,s2,s3,s4)]
**kern	**kern	**kern	**kern	**kern	**kern	**kern	**kern	**kern	**kern	**kern	**kern	**kern	**kern	**kern	**kern
*part4	*part4	*part4	*part4	*part3	*part3	*part3	*part3	*part2	*part2	*part2	*part2	*part1	*part1	*part1	*part1
*staff16	*staff15	*staff14	*staff13	*staff12	*staff11	*staff10	*staff9	*staff8	*staff7	*staff6	*staff5	*staff4	*staff3	*staff2	*staff1
*I"Violoncello	*	*	*	*I"Viola	*	*	*	*I"Violino II	*	*	*	*I"Violino I	*	*	*
*clefF4	*clefC3	*clefG2	*clefG2
*k[b-]	*k[b-]	*k[b-]	*k[b-]
*M6/8	*M6/8	*M6/8	*M6/8
8r	8r	8r	8a
=1	=1	=1	=1
4d	8.fL	4a	8.ddLT
.	16e	.	16cc#
8d	8fJ	8a	8ddJ
4d	8.dL	4a	8.ffL
.	16e	.	16ee
8d	8fJ	8a	8ddJ
=2	=2	=2	=2
4A	4e	4a	8.cc#LT
.	.	.	16dd
8A	8c#	8a	8eeJ
4A	4c#y	4e	8a
.	.	.	8r
8A	8c#y	8g	16aaL
.	.	.	16aaJ
=3	=3	=3	=3
4D	4d	8.f#L	8aa
.	.	.	8r
.	.	16d	.
8D	8c#	8eJ	16aaL
.	.	.	16aaJ
4D	8.dL	8.fnL	8aa
.	.	.	8r
.	16e	16g	.
8D	8dJ	8fJ	16aaL
.	.	.	16aaJ
=4	=4	=4	=4
4AA	4c#	4e	(4.aa
8A	8c#y	8e	.
4AA	4c#y	4a	8ee)
.	.	.	8r
8A	8e	8c#	8a
=5	=5	=5	=5
4G	8.c#L	4b-y	8.eeL
.	16d	.	16ff
8G	8eJ	8b-y	8ggJ
4G	8.eL	4b-y	8.ggL
.	16d	.	16ff
8G	8c#yJ	8b-y	8eeJ
!!LO:LB
=6	=6	=6	=6
4F	4d	4a	8.aaL
.	.	.	16ff
8F	8d	8a	8ddJ
4F	4d	4a	8dd
.	.	.	8r
8F#	8a	8cc	16dddL
.	.	.	16dddJ
=7	=7	=7	=7
4G	4g	4bn	8ddd
.	.	.	8r
8G	8g	8b-	16dddL
.	.	.	16dddJ
4A	4f	4a	8ddd
.	.	.	8r
8AA	8G	8c#	16dddL
.	.	.	16dddJ
=8	=8	=8	=8
4DD	8.FL	8.dL	(4.ddd
.	16G	16e	.
8D	8AJ	8fJ	.
8DD	8F	8d	8dd)
8r	8r	8r	8r
=:|!	=:|!	=:|!	=:|!
8r	8r	8r	(8dd
=9	=9	=9	=9
4D	8.dL	4a	8.ffL)
.	16e	.	16gg
8D	8fJ	8a	8aaJ
4D	4d	8.aL	8.ffLT
.	.	16g	16ee
8D	8a	8fJ	8ddJ
=10	=10	=10	=10
4E	4g	4b-y	(8ddL
.	.	.	8cc)
8E	8g	8b-y	8ccJ
4E	4g	4b-y	4cc
8E	8g	8b-y	16cccL
.	.	.	16cccJ
=11	=11	=11	=11
4F	8.fL	8.aL	8ccc
.	.	.	8r
.	16g	16b-y	.
8F	8aJ	8ccJ	16cccL
.	.	.	16cccJ
4F	8.AL	8.fL	8ccc
.	.	.	8r
.	16G	16e	.
8D	8FJ	8fJ	16cccL
.	.	.	16cccJ
=12	=12	=12	=12
4C	(4.f	(4.a	(4.ccc
8c	.	.	.
4c	4e)	4g)	4cc)
8c	8c	8e	8gg
=13	=13	=13	=13
.	.	.	(<32qggL
.	.	.	32qaaJ
4B-y	4d-	4e	8.bb-yL)
.	.	.	16aa
8B-y	8d-y	8e	8ggJ
4B-y	4d-y	4e	4gg
8B-y	8d-y	8e	8gg
=14	=14	=14	=14
.	.	.	(<32qffL
.	.	.	32qggJ
4Bn	4dn	8.fL	8.aa-L)
.	.	16g	16gg
8B	8d	8a-J	8ffJ
4B	4d	4a-y	4ff
8B	8d	(8a-y	8ff
=15	=15	=15	=15
4c	4c	4an)	8.ffL
.	.	.	16aan
8c	8c	(8a	8cccJ
4C	4c	4b-y)	8.ccLT
.	.	.	16dd
8C	8c	8b-y	8eeJ
=16	=16	=16	=16
4F	[4.c	(4.b-y	(4.ee
8C	.	.	.
4FF	4c]	4a)	4ff)
8r	8f	8cc	8aa
=17	=17	=17	=17
4F	8.fL	[4.cc	8.aaL
.	16g	.	16bb-y
8F	8aJ	.	8cccJ
4F	4a	(4cc_	8.ffLT
.	.	.	16gg
8D	8f	8bn)	8aaJ
=18	=18	=18	=18
4C	(4.f	[4.cc	(4.aa
8c	.	.	.
(4c	4e)	(8ccL_	4gg)
.	.	8b-	.
8c#)	8e	8gJ)	8bb-y
!!LO:LB
=19	=19	=19	=19
(4d	[2.d	(4f	(16bb-yL
.	.	.	16aa)
.	.	.	(16gg
.	.	.	16ff)
8cn	.	8f#	(16ee
.	.	.	16ddJ)
4Bn	.	4g	8.ddLT
.	.	.	16cc#
8B-)	.	8g#)	8ddJ
=20	=20	=20	=20
4A	(8.dL_	(4.g#	(4.ff
.	16c#	.	.
8A	8BnJ)	.	.
4A	4c#y	8a)	4ee)
.	.	8r	.
8A	8r	8r	8A
=21	=21	=21	=21
4G	4B-	4e-	8.B-yLT
.	.	.	16e-
8G	8B-y	8e-y	8gJ
4G	4B-y	4e-y	8.b-yLT
.	.	.	16ee-
8G	8B-y	8e-y	8ggJ
=22	=22	=22	=22
4G	8.B-yL	8.e-L	(4.bb-y
.	16e-	16g	.
8G	8gJ	8b-yJ	.
4G	4.en	8.b-yL	8cc#)
.	.	.	8r
.	.	16a	.
8G	.	8gJ	8r
=23	=23	=23	=23
4A	4d	(4f#	8aa
.	.	.	8r
8A	8d	8fn)	16aaL
.	.	.	16aaJ
4AA	8.c#L	8.enLT	8aa
.	.	.	8r
.	16A	16f	.
8AA	8GJ	8eJ	16aaL
.	.	.	16aaJ
=24	=24	=24	=24
4D	(4.G	(4.e	(4.aa
8AA	.	.	.
8DD	8F)	8d)	8dd)
8r	8r	8r	8r
!!LO:LB
=:|!	=:|!	=:|!	=:|!
8r	8r	8r	8A
=25	=25	=25	=25
2.D	(4.F	(4.A	(16dL
.	.	.	16A
.	.	.	16f
.	.	.	16d
.	.	.	16a
.	.	.	16fJ)
.	4.A)	4.f)	(16ddL
.	.	.	16a
.	.	.	16ff
.	.	.	16dd
.	.	.	16cc#
.	.	.	16ddJ)
=26	=26	=26	=26
2.AA	4.A_	(8eL	(16cc#L
.	.	.	16dd
.	.	8c#)	16dd#
.	.	.	16ee
.	.	8c#yJ	16dd#y
.	.	.	16eeJ)
.	(4A_	4.c#y	(<16aL
.	.	.	16b-y
.	.	.	16a
.	.	.	16g
.	8G)	.	16f
.	.	.	16eJ
=27	=27	=27	=27
2.BB-y	4.F	(4.d	16dL)
.	.	.	(16cc#
.	.	.	16dd
.	.	.	16cc#y
.	.	.	16dd
.	.	.	16eeJ
.	(4d	4.dd)	16ffL
.	.	.	16ee
.	.	.	16ff
.	.	.	16ff#
.	8e)	.	16gg
.	.	.	16gg#J)
=28	=28	=28	=28
2.AA	(8fL	(8ddL_	(16gg#L
.	.	.	16aa
.	8e	8ee	16gg#y
.	.	.	16aa
.	8dJ)	8ffJ)	16gg#y
.	.	.	16aaJ)
.	4.a	4.cc#	4ee
.	.	.	8A
!!LO:LB
=29	=29	=29	=29
2.GG	(4.c#	4.e	(16B-yL
.	.	.	16c#
.	.	.	16e
.	.	.	16g
.	.	.	16b-y
.	.	.	16cc#J)
.	4.B-y)	(8.c#L	(16eeL
.	.	.	16gg
.	.	.	16bb-y
.	.	16e	16gg
.	.	16g	16ee
.	.	16eJ)	16cc#yJ
=30	=30	=30	=30
8FFL	8AL	8dL	16ddL)
.	.	.	(<16c#
8r	8r	8r	16d
.	.	.	16c#y
(8FF#J	(8AJ	(8cnJ	16d
.	.	.	16c#yJ
8GGL)	8GL)	8B-yL)	16dL)
.	.	.	(<16cc#
8r	8r	8r	16dd
.	.	.	16cc#y
(>8AAJ	(8cnJ	(8f#J	16dd
.	.	.	16cc#yJ)
=31	=31	=31	=31
8BB-yL)	8B-yL)	8gL)	(16ddL
.	.	.	16ee-
8r	8r	8r	16een
.	.	.	16ff
(>8B-yJ	[8dJ	(8gJ	16ff#
.	.	.	16ggJ
8AL)	8dL]	8fnL)	16gg#L
.	.	.	16aa
8r	8r	8r	16bb-y
.	.	.	16bbn
8AAJ	8GJ	8eJ	16cccn
.	.	.	16ccc#J)
=32	=32	=32	=32
(4D	(4.G	(4.e	(>4ccc#
.	.	.	(<32qdddL
.	.	.	32qccc#y
.	.	.	32qbb
.	.	.	32qccc#yJ)
8AA)	.	.	8ddd)
8DD	8F)	8d)	8dd
8r	8r	8r	8r
=:|!	=:|!	=:|!	=:|!
8r	8r	8r	8d
=33	=33	=33	=33
2.D	4.F	4.A	(16fL
.	.	.	16d
.	.	.	16a
.	.	.	16f
.	.	.	16dd
.	.	.	16aJ)
.	4.A	(4d	(16ffL
.	.	.	16aa
.	.	.	16gg
.	.	.	16ff
.	.	8f)	16ee
.	.	.	16ddJ)
=34	=34	=34	=34
4.E	[4.G	(4.g	(16ddL
.	.	.	16cc)
.	.	.	16cc
.	.	.	16cc
.	.	.	16cc
.	.	.	16ccJ
4.C	(4G_	4.e)	(16bnL
.	.	.	16cc
.	.	.	16dd
.	.	.	16cc
.	8c)	.	16b-
.	.	.	16gJ)
=35	=35	=35	=35
[4.FF	[4.c	[4.f	(16aL
.	.	.	16f
.	.	.	16cc
.	.	.	16a
.	.	.	16ff
.	.	.	16ccJ)
8FFL]	8cL]	8fL]	(16aaL
.	.	.	16ff
(<8A	(8c	(8f	16ccc)
.	.	.	16ccc'
8FJ)	8fJ)	8aJ)	16ccc'
.	.	.	16ccc'J
=36	=36	=36	=36
(4.c	(4.f	(4a	(4ccc
.	.	8f)	32bb-yL
.	.	.	32aa
.	.	.	32gg
.	.	.	32aaJ)
8C)	8e)	8cc	4gg
8r	8r	8r	.
8c	8e	8cc	8gg
!!LO:LB
=37	=37	=37	=37
(4B-y	4e	(4dd-	(16ggL
.	.	.	16bb-y
.	.	.	16ddd-
.	.	.	16bb-y
8c	(16eL	8cc	16gg
.	16fJ	.	16ffJ)
4d-)	4g)	4b-y)	8ee
.	.	.	8r
(8D-	8g	8b-y	8ee
=38	=38	=38	=38
4Dn)	(4a-	(4bn	(16ffL
.	.	.	16gg
.	.	.	16aa-
.	.	.	16ff
8D	8f)	8a-)	16dd
.	.	.	16ccJ)
4D	4A-	4f	8bn
.	.	.	8r
(8D	(8A-y	8f	8b
=39	=39	=39	=39
4C)	4An)	4f	(16ccL
.	.	.	16ff
.	.	.	16aan
.	.	.	16ff
8C	8A	8f	16cc
.	.	.	16aJ
4C	(4G	(4e	16ccL
.	.	.	16b-
.	.	.	16dd
.	.	.	16b-y
8C	8c)	8B-y)	16g
.	.	.	16eJ)
=40	=40	=40	=40
(4F	[4.c	(4.B-y	(4.g
8C)	.	.	.
8FF	8c]	8A)	8f)
8r	8r	8r	8r
8r	8r	8r	8c
!!LO:LB
=41	=41	=41	=41
4F	8AL	8cL	(16fL
.	.	.	16a
.	(8f	(8a	16cc
.	.	.	16a
8F	8aJ)	8ccJ)	16ff
.	.	.	16ccJ)
(8FL	(4cc	8ffL	(16aaL
.	.	.	16ff
8A	.	8ff	16ccc)
.	.	.	16ccc'
8FJ)	8a)	8ffJ	16ccc'
.	.	.	16ccc'J
=42	=42	=42	=42
4c	(4.a	(4.ff	(4ccc
8c	.	.	32bb-yL
.	.	.	32aa
.	.	.	32gg
.	.	.	32aaJ)
4C	4cc)	4ee)	4gg
8C#	8e	8g	8A
=43	=43	=43	=43
4D	8AL	8fL	(16dL
.	.	.	16f
.	(8d	(8f	16a
.	.	.	16f
8D	8fJ)	8aJ)	16dd
.	.	.	16aJ)
(8DL	(4a	8ddL	(16ffL
.	.	.	16dd
8F	.	8dd	16aa)
.	.	.	16aa'
8DJ)	8f)	8ddJ	16aa'
.	.	.	16aa'J
=44	=44	=44	=44
4A	(4.f	(4.dd	(4aa
8A	.	.	32ggL
.	.	.	32ff
.	.	.	32ee
.	.	.	32ffJ)
4AA	8a)	8cc#)	4ee
.	8r	8r	.
8AA	8r	8r	8A
!!LO:LB
=45	=45	=45	=45
4GG	2.B-y	2.e-	16B-yL
.	.	.	(16d
.	.	.	16e-)
.	.	.	(16f#
8GG	.	.	16g)
.	.	.	(16aJ
4GG	.	.	16b-yL)
.	.	.	(16dd
.	.	.	16ee-)
.	.	.	(16ff#
8GG	.	.	16gg)
.	.	.	(16aaJ
=46	=46	=46	=46
8G	8c#	8en	(16bb-yL)
.	.	.	16gg
8r	8r	8r	16een
.	.	.	16cc#)
8r	8r	8r	16ffn'
.	.	.	16ff'J
8G#	8Bn	8d	(16ffL
.	.	.	16dd
8r	8r	8r	16bn
.	.	.	16g#)
8r	8r	8r	16dd'
.	.	.	16dd'J
=47	=47	=47	=47
4.A	4.d	4.f	(16ddL
.	.	.	16cc#
.	.	.	16ccn
.	.	.	16bn
.	.	.	16b-
.	.	.	16aJ)
4.AA	(4c#	(4e	(16g#L
.	.	.	16a
.	.	.	16b-y
.	.	.	16a
.	8G)	8c#)	16gn
.	.	.	16eJ)
=48	=48	=48	=48
(4D	(4.G	(4.c#	(4.e
8AA)	.	.	.
8DD	8F)	8d)	8d)
8r	8r	8r	8r
=:|!	=:|!	=:|!	=:|!
8r	8r	[8A	[8a
=49	=49	=49	=49
8D	8AL	16AL_	8aL_
.	.	16d	.
8r	(8F	16f	8dd
.	.	(8a	.
8r	8DJ)	.	[8ffJ
.	.	16fJ)	.
8D	8AL	16AL	8ffL_
.	.	16d	.
8r	(8F	16f	8dd
.	.	(8a	.
8r	8DJ)	.	[8b-yJ
.	.	16fJ)	.
=50	=50	=50	=50
8D	8B-yL	16B-yL	8b-yL_
.	.	16e	.
8r	(8G	16g	8eeJ
.	.	(8b-y	.
8r	8EJ)	.	4gg
.	.	16gJ)	.
8C#	8AL	16AL	.
.	.	16c#	.
8r	(8G	16e	8eeL
.	.	(8g	.
8r	8EJ)	.	[8aJ
.	.	16eJ)	.
=51	=51	=51	=51
8D	8AL	16dL	8aL_
.	.	16f	.
8r	(8F	16a	8ddJ
.	.	(8dd	.
8r	8DJ)	.	4ff
.	.	16fJ)	.
8D	8fL	16aL	.
.	.	16dd	.
8r	(8d	16ff	8aaL
.	.	(8aa	.
8r	8AJ)	.	8dddJ
.	.	16fJ)	.
!!LO:LB
=52	=52	=52	=52
8AA	8eL	16eL	(8ccc#L
.	.	16a	.
8r	(8c#	16cc#	8eee
.	.	(8ee	.
8r	8AJ)	.	8aaaJ)
.	.	16aJ)	.
8AA	8aL	16cc#yL	8aaa
.	.	16ee	.
8r	(8e	16aa	8r
.	.	(8ccc#	.
8r	8c#yJ)	.	8r
.	.	16aJ)	.
=53	=53	=53	=53
8G'L	8B-y'L	(24b-yL	4bb-y
.	.	24cc#	.
.	.	24eeJ	.
8c#'	8e'	24b-yL	.
.	.	24cc#y	.
.	.	24eeJ	.
8e'J	8g'J	24b-yL	16.ggLT
.	.	24cc#y	.
.	.	24eeJ	.
.	.	.	32aaJ
8g'	8b-y'	24b-yL	(8bb-yL
.	.	24cc#y	.
.	.	24eeJ	.
8r	8r	24b-yL	8gg
.	.	24cc#y	.
.	.	24eeJ	.
8r	8r	24b-yL	8eeJ)
.	.	24cc#y	.
.	.	24eeJ)	.
!!LO:LB
=54	=54	=54	=54
8F'L	8A'L	(24aL	4aa
.	.	24cc#	.
.	.	24ddJ	.
8A'	8d'	24aL	.
.	.	24cc#y	.
.	.	24ddJ	.
8d'J	8f'J	24aL	16.ffLT
.	.	24cc#y	.
.	.	24ddJ	.
.	.	.	32ggJ
8f'	8a'	24aL	(8aaL
.	.	24cc#y	.
.	.	24ddJ	.
8r	8r	24aL	8ff
.	.	24cc#y	.
.	.	24ddJ	.
8r	8r	24aL	8ddJ)
.	.	24cc#y	.
.	.	24ddJ)	.
=55	=55	=55	=55
8G'L	8g'L	(24b-yL	(8ee-L
.	.	24cc	.
.	.	24b-yJ)	.
8C#'	8en'	(24b-yL	8gg
.	.	24cc	.
.	.	24b-yJ	.
8D'J	8f'J	24aL	8ffJ
.	.	24b-y	.
.	.	24aJ)	.
8G'L	8b-y'L	(24gL	8eenL
.	.	24a	.
.	.	24gJ	.
8A'	8a'	24fL	8dd
.	.	24g	.
.	.	24fJ	.
8AA'J	8g'J	24eL	8cc#J)
.	.	24f	.
.	.	24eJ)	.
=56	=56	=56	=56
8D'L	8fL	(24dL	8dd'L
.	.	24c#	.
.	.	24dJ	.
8AA'	8A 8F	24fL	8ff'
.	.	24e	.
.	.	24fJ	.
8FF'J	8AJ 8F	24aL	8aa'J
.	.	24g#	.
.	.	24aJ)	.
8DD	8A 8F	8dd	8ddd
8r	8r	8r	8r
!!LO:LB
=:|!	=:|!	=:|!	=:|!
8r	8r	[8A	[8a
=57	=57	=57	=57
8D	8AL	16AL_	8aL_
.	.	16d	.
8r	(8F	16f	8ddJ
.	.	(8a	.
8r	8DJ)	.	4ff
.	.	16fJ)	.
8D	8AL	16AL	.
.	.	16d	.
8r	(8F	16f	8eeL
.	.	(8a	.
8r	8DJ)	.	[8ddJ
.	.	16fJ)	.
=58	=58	=58	=58
8E	8B-yL	16GL	8ddL_
.	.	16B-y	.
8r	(8G	16d	8ggJ
.	.	(8g	.
8r	8EJ)	.	4ddd
.	.	16dJ)	.
8E	8gL	16B-yL	.
.	.	16c	.
8r	(8e	16g	8cccL
.	.	(8cc	.
8r	8cJ)	.	[8bb-yJ
.	.	16gJ)	.
=59	=59	=59	=59
8F	8fL	16cL	8bb-yL_
.	.	16e	.
8r	(8c	16f	8aaJ
.	.	(8a	.
8r	8AJ)	.	4ccc
.	.	16fJ)	.
8D	8cL	16AL	.
.	.	16c	.
8r	(8A	16f	(8ffL
.	.	(8a	.
8r	8FJ)	.	8cccJ)
.	.	16fJ)	.
=60	=60	=60	=60
8C	8cL	16cL	(4.aa
.	.	16f	.
8r	(8A	16a	.
.	.	(8cc	.
8r	8FJ)	.	.
.	.	16fJ)	.
8C	8cL	16cL	8gg)
.	.	16e	.
8r	(8G	16g	8r
.	.	(8cc	.
8r	8EJ)	.	8r
.	.	16eJ)	.
=61	=61	=61	=61
8BB-y'L	8G'L	(24GL	4ddd-
.	.	24B-y	.
.	.	24d-J	.
8E'	8B-y'	24GL	.
.	.	24B-y	.
.	.	24d-yJ	.
8G'J	8e'J	24GL	16.bb-yLT
.	.	24B-y	.
.	.	24d-yJ	.
.	.	.	32cccJ
8B-y	8g	24GL	(8ddd-yL
.	.	24B-y	.
.	.	24d-yJ	.
8r	8r	24GL	8bb-y
.	.	24B-y	.
.	.	24d-yJ	.
8r	8r	24GL	8ggJ)
.	.	24B-y	.
.	.	24d-yJ)	.
=62	=62	=62	=62
8DL	8F'L	(24A-L	4aa-
.	.	24Bn	.
.	.	24dnJ	.
8F	8Bn'	24A-yL	.
.	.	24B	.
.	.	24dJ	.
8BnJ	8d'J	24A-yL	16.ffLT
.	.	24B	.
.	.	24dJ	.
.	.	.	32ggJ
8d	8f	24A-yL	(8aa-yL
.	.	24B	.
.	.	24dJ	.
8r	8r	24A-yL	8ff
.	.	24B	.
.	.	24dJ	.
8r	8r	24A-yL	8bnJ)
.	.	24B	.
.	.	24dJ)	.
!!LO:LB
=63	=63	=63	=63
4.c	[2.c	(24anL	(8ccL
.	.	24b-	.
.	.	24aJ	.
.	.	24gL	8b-
.	.	24a	.
.	.	24gJ	.
.	.	24fL	8aJ)
.	.	24g	.
.	.	24fJ)	.
.	.	.	(<16qa
4.C	.	(24B-yL	(8gL)
.	.	24c	.
.	.	24B-yJ	.
.	.	24AL	8f
.	.	24B-y	.
.	.	24AJ	.
.	.	24GL	8eJ)
.	.	24A	.
.	.	24GJ)	.
=64	=64	=64	=64
8F'L	8cL]	(24AL	8f'L
.	.	24G	.
.	.	24AJ	.
8C'	8c	24cL	8a'
.	.	24B-y	.
.	.	24cJ	.
8AA'J	8cJ	24fL	8cc'J
.	.	24e	.
.	.	24fJ)	.
8FF	8c	8a	8ff
8r	8r	8r	8r
8r	8r	[8c	[8a
=65	=65	=65	=65
8F	8cL	16cL_	8aL_
.	.	16f	.
8r	(8A	16a	8ccJ
.	.	(8cc	.
8r	8FJ)	.	4ff
.	.	16aJ)	.
8F	8cL	16AL	.
.	.	16c	.
8r	(8A	16f	8aaL
.	.	(8a	.
8r	8FJ)	.	[8cccJ
.	.	16fJ)	.
!!LO:LB
=66	=66	=66	=66
8C	8AL	16AL	(16cccL_
.	.	16c	16bbn
8r	(8F	16f	16ccc
.	.	(8a	16bb
8r	8CJ)	.	16ccc
.	.	16fJ)	16aaJ
8C#	8AL	16AL	8gg)
.	.	16c#	.
8r	(8E	16e	8r
.	.	(8g	.
8r	8C#J)	.	[8a
.	.	16eJ)	.
=67	=67	=67	=67
8D	8AL	16AL	8aL_
.	.	16d	.
8r	(8F	16f	8cc#J
.	.	(8a	.
8r	8DJ)	.	4dd
.	.	16fJ)	.
8D	8AL	16AL	.
.	.	16c#	.
8r	(8F	16d	8ffL
.	.	(8f	.
8r	8DJ)	.	[8aaJ
.	.	16dJ)	.
=68	=68	=68	=68
8AA	8dL	16AL	(16aaL_
.	.	16c#	16gg#
8r	(8A	16d	16aa
.	.	(8f	16gg#y
8r	8FJ)	.	16aa
.	.	16dJ)	16ffJ
8AA	8c#L	16c#yL	8ee)
.	.	16e	.
8r	(8A	16a	8r
.	.	(8cc#	.
8r	8EJ)	.	8r
.	.	16aJ)	.
!!LO:LB
=69	=69	=69	=69
.	.	.	(>16qb-y
8G'L	8B-y'L	(24b-yL	4bb-y)
.	.	24cc#	.
.	.	24eeJ	.
8c#'	8e'	24b-yL	.
.	.	24cc#y	.
.	.	24eeJ	.
8e'J	8g'J	24b-yL	16.ggLT
.	.	24cc#y	.
.	.	24eeJ	.
.	.	.	32aaJ
8g	8b-y	24b-yL	(8bb-yL
.	.	24cc#y	.
.	.	24eeJ	.
8r	8r	24b-yL	8gg
.	.	24cc#y	.
.	.	24eeJ	.
8r	8r	24b-yL	8eeJ)
.	.	24cc#y	.
.	.	24eeJ)	.
=70	=70	=70	=70
.	.	.	(>16qff
8GG#'L	8Bn'L	(24dL	4fff)
.	.	24f	.
.	.	24g#J	.
8BBn'	8D'	24dL	.
.	.	24f	.
.	.	24g#yJ	.
8D'J	8F'J	24dL	16.dddLT
.	.	24f	.
.	.	24g#yJ	.
.	.	.	32eeeJ
(8G#L	(8BL	24dL	(8fffL
.	.	24f	.
.	.	24g#yJ	.
8Bn	8d	24dL	8ddd
.	.	24f	.
.	.	24g#yJ	.
8dJ)	8fJ)	24dL	8gg#J)
.	.	24f	.
.	.	24g#yJ)	.
=71	=71	=71	=71
4.A	[2.a	(24ffL	(8aaL
.	.	24gg	.
.	.	24ffJ	.
.	.	24eeL	8ggn
.	.	24ff	.
.	.	24eeJ	.
.	.	24ddL	8ffJ)
.	.	24ee	.
.	.	24ddJ)	.
.	.	.	(<16qff
4.AA	.	(24gL	(8eeL)
.	.	24a	.
.	.	24gJ	.
.	.	24fL	8dd
.	.	24g	.
.	.	24fJ	.
.	.	24eL	8cc#J)
.	.	24f	.
.	.	24eJ)	.
=72	=72	=72	=72
8DL	8aL]	(24dL	8ddL
.	.	24c#	.
.	.	24dJ	.
8AA	8A 8F	24fL	8ff
.	.	24e	.
.	.	24fJ	.
8FFJ	8AJ 8F	24aL	8aaJ
.	.	24g#	.
.	.	24aJ)	.
8DD	8A 8F	8dd	8ddd
8r	8r	8r	8r
=:|!	=:|!	=:|!	=:|!
8r	8A	8r	8r
=73	=73	=73	=73
8r	(8AL	8r	8r
8DL	8dJ)	8AL	8fL
8DJ	8r	8AJ	8fJ
8r	(8fL	8r	8r
8DL	8dJ)	8AL	8fL
8DJ	8r	8AJ	8fJ
=74	=74	=74	=74
8r	(16c#L	8r	8r
.	16e	.	.
8AAL	16a)	8c#L	8eL
.	16a'	.	.
8AAJ	16a'	8c#yJ	8eJ
.	16a'J	.	.
8r	(4a	8r	8r
8AAL	.	8c#yL	8eL
8AAJ	24gL	8c#yJ	8eJ
.	24f	.	.
.	24eJ)	.	.
!!LO:LB
=75	=75	=75	=75
8r	(8dL	8r	8r
8BB-yL	8ddJ)	(8fL	(8ddL
8BB-yJ	8r	8dJ)	8fJ)
8r	(8ffL	8r	8r
8BB-yL	8g#J)	(8fL	(8ddL
8BB-yJ	8r	8ddJ)	8gg#J)
=76	=76	=76	=76
8AAL	(32eL	8cc#L	8aaL
.	16.a)	.	.
8AA	(32e	8cc#y	8aa
.	16.cc#)	.	.
8AAJ	(32e	8cc#yJ	8aaJ
.	16.eeJ)	.	.
4AA	4a	4cc#y	4aa
8r	8r	8a	8aa
=77	=77	=77	=77
8r	8r	(8b-yL	(8bb-yL
8C#L	8gL 8B-y	8eJ)	8eeJ)
8C#yJ	8gJ 8B-y	8r	8r
8r	8r	(8b-yL	(8bb-yL
8C#yL	8gL 8B-y	8eJ)	8eeJ)
8C#yJ	8gJ 8B-y	8r	8r
=78	=78	=78	=78
8r	8r	(16aL	(16aaL
.	.	16d)	16dd)
8DL	8fL 8A	16d	16dd
.	.	16d	16dd
8DJ	8fJ 8A	16d	16dd
.	.	16dJ	16ddJ
8r	8r	(16aL	(16aaL
.	.	16d)	16dd)
8DL	8fL 8A	16d	16dd
.	.	16d	16dd
8DJ	8fJ 8A	16d	16dd
.	.	16dJ	16ddJ
!!LO:LB
=79	=79	=79	=79
4.GG	4.B-y	8.eL	8.eeL
.	.	16f	16ff
.	.	[8gJ	[8ggJ
4.AA	(8C#L	(8gL_	(8ggL_
.	8E	8e	8ee
.	8GJ)	8c#J)	8cc#J)
=80	=80	=80	=80
(4D	[4.A (4.G	(4.e	(4.ee
8AA)	.	.	.
8DD	8A] 8F)	8d)	8dd)
8r	8r	8r	8r
=:|!	=:|!	=:|!	=:|!
8r	8A	8r	8r
=81	=81	=81	=81
8r	(8AL	8r	8r
8DL	8dJ)	8AL	8fL
8DJ	8r	8AJ	8fJ
8r	(8fL	8r	8r
8DL	8dJ)	8AL	8fL
8DJ	8r	8AJ	8fJ
=82	=82	=82	=82
4.EE	(16CL	2.g 2.c	2.b-y
.	16E	.	.
.	16G	.	.
.	16c	.	.
.	16e	.	.
.	16gJ)	.	.
4.E	(16b-yL	.	.
.	16g	.	.
.	16e	.	.
.	16c	.	.
.	16B-y	.	.
.	16GJ)	.	.
=83	=83	=83	=83
8r	(8AL	8r	8r
8FL	8ccJ)	(8aL	(8ffL
8FJ	8r	8cJ)	8aJ)
8r	(8GL	8r	8r
8BB-yL	8ddJ)	(8dL	(8gL
8BB-yJ	8r	8gJ)	8ddJ)
!!LO:LB
=84	=84	=84	=84
4.C	(4f	(4.A	8r
.	.	.	8cL
.	32eL	.	8cJ
.	32f	.	.
.	32g	.	.
.	32fJ)	.	.
8CC	4e	4G)	4c
8r	.	.	.
8r	8r	8cc	8ccc
=85	=85	=85	=85
8r	8r	(8dd-L	(8ddd-L
8EL	(8d-L	8gJ)	8ggJ)
8EJ	8cJ)	8r	8r
8r	8r	(8dd-yL	(8ddd-yL
8EL	(8d-yL	8gJ)	8ggJ)
8EJ	8cJ)	8r	8r
=86	=86	=86	=86
8r	8r	(16a-L	(16aa-L
.	.	16Bn)	16bn)
8DL	8A-L 8F	16B	16b
.	.	16B	16b
8DJ	8A-yJ 8F	16B	16b
.	.	16BJ	16bJ
8r	8r	(16a-yL	(16aa-yL
.	.	16B)	16b)
8DL	8A-yL 8F	16B	16b
.	.	16B	16b
8DJ	8A-yJ 8F	16B	16b
.	.	16BJ	16bJ
=87	=87	=87	=87
!!Error: measure 87, staff 4 is underfilled: adding token 4.ryy at end of measure to complete its duration.
4C	4An 4F	(16cL	(16ccL
.	.	16cc)	16ccc)
.	.	16cc	16ccc'
.	.	16cc	16ccc'
8r	8r	16cc	16ccc'
.	.	16ccJ	16ccc'J
4.ryy	(16CL	8cc	8ccc
.	16c)	.	.
.	16c	8r	8r
.	16c	.	.
.	16c	8B	8e
.	16cJ	.	.
=88	=88	=88	=88
(<16FFL	[4.c	(4.B-y	(4.e
16F)	.	.	.
16F'	.	.	.
16F'	.	.	.
16F'	.	.	.
16F'J	.	.	.
8F	8c]	8A)	(16fL)
.	.	.	16ff)
8r	8r	8r	16ff
.	.	.	16ff
8r	(8F	8r	16ff
.	.	.	16ffJ
=89	=89	=89	=89
2.r	8AL)	2.r	8ff
.	8c	.	8r
.	8eJ	.	8r
.	(16fL	.	4r
.	16g	.	.
.	16a-	.	.
.	16an	.	.
.	16b-y	.	8r
.	16bnJ)	.	.
=90	=90	=90	=90
.	(<16qdd	.	.
[4.C	4cc)	(8AL	4.f
.	.	8B-y	.
.	(16.ccL_	8BnJ)	.
.	64b-	.	.
.	64aJ)	.	.
8C]	8g	(16cL	(16eL
.	.	16e)	16g)
8r	8r	16e	16g
.	.	16e	16g
(8AA	(8C#	16e	16g
.	.	16eJ	16gJ
=91	=91	=91	=91
8DD)	8DL)	8d	8f
8r	8F	8r	8r
8r	8AJ	8r	8r
4.BB-y	(16dL	4r	4r
.	16e	.	.
.	16f	.	.
.	16f#	.	.
.	16g	8r	8r
.	16g#J)	.	.
!!LO:LB
=92	=92	=92	=92
.	(<16qb-y	.	.
[4.AA	4a)	[4f	(16ddL
.	.	.	16ee
.	.	.	16ff
.	.	.	16ff#
.	(16.aL_	(16.fL_	16gg
.	.	.	16gg#J
.	64g	64e	.
.	64fJ)	64dJ)	.
8AA_	8e	16c#L	16aaL)
.	.	16a	16aa
8r	8r	16a	16aa
.	.	16a	16aa
8r	8r	16a	16aa
.	.	16aJ	16aaJ
=93	=93	=93	=93
8r	8r	(8b-yL	(8bb-yL
8EL	(8GL	8c#J)	8cc#J)
8EJ	8B-yJ)	8r	8r
8r	8r	(8b-yL	(8bb-yL
8EL	(8GL	8c#yJ)	8cc#yJ)
8EJ	8B-yJ)	8r	8r
=94	=94	=94	=94
8r	8r	(16fL	(>16ffL
.	.	16G#)	16g#)
8BBnL	(8DL	16G#y	16g#y
.	.	16G#y	16g#y
8BBJ	8FJ)	16G#y	16g#y
.	.	16G#yJ	16g#yJ
8r	8r	(16fL	(>16ffL
.	.	16G#y)	16g#y)
8BBL	(8DL	16G#y	16g#y
.	.	16G#y	16g#y
8BBJ	8FJ)	16G#y	16g#y
.	.	16G#yJ	16g#yJ
=95	=95	=95	=95
4AA	4F	(16AL	(16aL
.	.	16a)	16aa)
.	.	16a	16aa
.	.	16a	16aa
8r	8r	16a	16aa
.	.	16aJ	16aaJ
4r	(16AL	8a	8aa
.	16a)	.	.
.	16a	8r	8r
.	16a	.	.
8r	16a	8e	8cc#
.	16aJ	.	.
!!LO:LB
=96	=96	=96	=96
(16DDL	(4.g	(4.e	(4.cc#
16D)	.	.	.
16D	.	.	.
16D	.	.	.
16D	.	.	.
16DJ	.	.	.
8D	8f)	8d)	8dd)
8r	8r	8r	8r
=:|!	=:|!	=:|!	=:|!
8r	8r	8A	8a
=97	=97	=97	=97
2.D	(2.f#y [2.A	(8dL	(8ddL
.	.	8c#y	8cc#y
.	.	8dJ	8ddJ
.	.	8f#yL	8ff#yL
.	.	8e	8ee
.	.	8dJ)	8ddJ)
=98	=98	=98	=98
2.AA	4.g) 4.A]	8dL_	8ddL_
.	.	16c#y	16cc#y
.	.	16d	16dd
.	.	8eJ	8eeJ
.	4.e 4.G	8.AL	8.aL
.	.	16B	16b
.	.	8c#yJ	8cc#yJ
=99	=99	=99	=99
4.BB	4.d 4.F#y	(16dL	(16ddL
.	.	16c#y	16cc#y
.	.	16d	16dd
.	.	16B	16b
.	.	16c#y	16cc#y
.	.	16dJ)	16ddJ)
8C#y'L	8A'L	8e'L	8ee'L
8D'	8A'	8f#y'	8ff#y'
8E'J	8d'J	8g#'J	8gg#'J
=100	=100	=100	=100
[4.AA	(4.d	(4g#	(4gg#
.	.	(<32qaL	.
.	.	32qg#y	.
.	.	32qf#y	.
.	.	32qg#yJ)	.
.	.	.	(<32qaaL
.	.	.	32qgg#y
.	.	.	32qff#y
.	.	.	32qgg#yJ)
.	.	8a)	8aa)
8AA]	8c#y)	8A	8a
8r	8r	8r	8r
8r	8r	8a	8aa
!!LO:LB
=101	=101	=101	=101
(16gL	2.r	(8aL	(8aaL
16f#y	.	.	.
16g	.	8b	8bb
16f#y	.	.	.
16e	.	8gnJ)	8ggnJ)
16dJ	.	.	.
16c#yL	.	8.eL	8.eeL
16B	.	.	.
16c#y	.	.	.
16B	.	16f#y	16ff#y
16A	.	8gJ	8ggJ
16GJ)	.	.	.
=102	=102	=102	=102
(16F#yL	2.r	(8gL	(8ggL
16E	.	.	.
16F#y	.	8a	8aa
16E	.	.	.
16D	.	8f#yJ)	8ff#yJ)
16C#yJ	.	.	.
16BBL	.	8.dL	8.ddL
16AA	.	.	.
16BB	.	.	.
16AA	.	16e	16ee
16GG	.	8f#yJ	8ff#yJ
16FF#yJ)	.	.	.
=103	=103	=103	=103
8EE	(>16cc#yL	8g	8gg
.	16a	.	.
8r	16b	8r	8r
.	16cc#y	.	.
8FF#y	16dd	8a	8ff#y
.	16cc#yJ	.	.
8GG	16bL	(<16gL	8ee
.	16a	16f#y	.
8r	16g	16e	8r
.	16f#y	16d	.
8AA	16e	16c#y	8cc#y
.	16gJ)	16eJ)	.
=104	=104	=104	=104
8DL	(16f#yL	(8.dL	(8.ddL
.	16d	.	.
8D	16A	.	.
.	16d	16f#y	16ff#y
8DJ	16f#y	16a	16aa
.	16aJ	16f#yJ	16ff#yJ
8D	8f#y)	8d)	8dd)
8r	8r	8r	8r
=:|!	=:|!	=:|!	=:|!
8r	8f#y	8a	8dd
=105	=105	=105	=105
4r	(4f#y	(4a	(4dd
8r	8e	8g#	8cc#y
(8DL	8dL	8f#yL	8bL
8E)	8c#y	8e	8a
8EJ	8BJ)	8dJ)	8g#J)
=106	=106	=106	=106
8AL	8AL	8c#yL	(16aL
.	.	.	16cc#y
8E	8A	8c#y	16ee)
.	.	.	16ee
8C#yJ	8AJ	8c#yJ	16ee
.	.	.	16eeJ
8AA	8A	8c#y	(8eeL
8r	8r	8r	8dd#)
8r	8f#y	8a	8ddnJ
=107	=107	=107	=107
4r	(4f#y	(4a	(4dd
8r	8e	8g#	8cc#y
(8DL	8dL	8f#yL	8bL
8E)	8c#y	8e	8a
8EEJ	8BJ)	8dJ)	8g#J)
=108	=108	=108	=108
8AAL	8AL	8c#yL	(16aL
.	.	.	16ee
8C#y	8e	8cc#y	16aa)
.	.	.	16aa
8EJ	8eJ	8cc#yJ	16aa
.	.	.	16aaJ
4A	4e	4cc#y	4aa
8r	8r	8a#	8aa#
!!LO:LB
=109	=109	=109	=109
(16gL	2.r	(8a#L	(8aa#L
16f#y	.	.	.
16g	.	8b	8bb
16f#y	.	.	.
16e	.	8gJ)	8ggJ)
16dJ	.	.	.
16c#yL	.	8.eL	8.eeL
16B	.	.	.
16c#y	.	.	.
16B	.	16f#y	16ff#y
16A	.	8gJ	8ggJ
16GJ)	.	.	.
=110	=110	=110	=110
(16F#yL	2.r	(8g#L	(8gg#L
16E	.	.	.
16F#y	.	8a	8aa
16E	.	.	.
16D	.	8f#yJ)	8ff#yJ)
16C#yJ	.	.	.
16BBL	.	8.dL	8.ddL
16AA	.	.	.
16BB	.	.	.
16AA	.	16e	16ee
16GG	.	8f#yJ	8ff#yJ
16FF#yJ)	.	.	.
=111	=111	=111	=111
8EE	(16cc#yL	8gn	8ggn
.	16a	.	.
8r	16b	8r	8r
.	16cc#y	.	.
8FF#y	16dd	8a	8ff#y
.	16cc#yJ	.	.
8GG	16bL	(16gL	8ee
.	16a	16f#y	.
8r	16g	16e	8r
.	16f#y	16d	.
8AA	16e	16c#y	8cc#y
.	16gJ)	16eJ)	.
=112	=112	=112	=112
8DL	(16f#yL	(8.dL	(8.ddL
.	16d	.	.
8D	16A	.	.
.	16d	16f#y	16ff#y
8DJ	16f#y	16a	16aa
.	16aJ	16f#yJ	16ff#yJ
8D	8f#y)	8d)	8dd)
8r	8r	8r	8r
!!LO:LB
=:|!	=:|!	=:|!	=:|!
8r	8r	8r	8a
=113	=113	=113	=113
4d	8.fL	4a	8.ddLT
.	16e	.	16cc#
8d	8fJ	8a	8ddJ
4d	8.dL	4a	8.ffL
.	16e	.	16ee
8d	8fJ	8a	8ddJ
=114	=114	=114	=114
4A	4e	4a	8.cc#LT
.	.	.	16dd
8A	8c#	8a	8eeJ
4A	4c#y	4e	4a
8A	8c#y	8g	24aaL
.	.	.	24aa
.	.	.	24aaJ
=115	=115	=115	=115
4D	4d	8.f#L	8aa
.	.	.	8r
.	.	16d	.
8D	8c#	8eJ	24aaL
.	.	.	24aa
.	.	.	24aaJ
4D	8.dL	8.fnL	8aa
.	.	.	8r
.	16e	16g	.
8D	8dJ	8fJ	24aaL
.	.	.	24aa
.	.	.	24aaJ
=116	=116	=116	=116
4AA	4c#	4e	(4.aa
8AA	8c#y	8e	.
4AA	4c#y	4a	8ee)
.	.	.	8r
8A	8e	8c#	8a
=117	=117	=117	=117
4G	8.c#L	4b-y	8.eeL
.	16d	.	16ff
8G	8eJ	8b-y	8ggJ
4G	8.eL	4b-y	8.ggL
.	16d	.	16ff
8G	8c#yJ	8b-y	8eeJ
!!LO:LB
=118	=118	=118	=118
4F	4d	4a	8.aaL
.	.	.	16ff
8F	8d	8a	8ddJ
4F	4d	4a	4dd
8F#	8a	8cc	24dddL
.	.	.	24ddd
.	.	.	24dddJ
=119	=119	=119	=119
4G	4g	4bn	8ddd
.	.	.	8r
8G#	8f	8dd	24dddL
.	.	.	24ddd
.	.	.	24dddJ
4A	4d	4f	8ddd
.	.	.	8r
8AA	8G	8e	24dddL
.	.	.	24ddd
.	.	.	24dddJ
=120	=120	=120	=120
4D	(4.G	(4.e	(4.ddd
8AA	.	.	.
8DD	8F)	8d)	8dd)
8r	8r	8r	8r
8r	24aL	[8ff	(8aa
.	24a	.	.
.	24aJ	.	.
=121	=121	=121	=121
2.r	8a	(8ffL_	8gg#)
.	8r	8ee)	8r
.	24aL	[8eeJ	(8ggn
.	24a	.	.
.	24aJ	.	.
.	8a	(8eeL_	8ff#)
.	8r	8dd#)	8r
.	24aL	[8ddnJ	8ffn
.	24a	.	.
.	24aJ	.	.
=122	=122	=122	=122
4r	(4.a	(8.ddL_	[4.ee
.	.	16cc#	.
8r	.	8bnJ	.
8r	8A)	4cc#y)	4ee]
8r	8r	.	.
24AL	8r	(8a	[8ff
24A	.	.	.
24AJ	.	.	.
=123	=123	=123	=123
8A	2.r	8g#)	(8ffL_
8r	.	8r	8ee)
24AL	.	(8gn	[8eeJ
24A	.	.	.
24AJ	.	.	.
8A	.	8f#)	(8eeL_
8r	.	8r	8dd#)
24AL	.	8fn	[8ddnJ
24A	.	.	.
24AJ	.	.	.
=124	=124	=124	=124
(4.A	2.r	[4.e	(8.ddL_
.	.	.	16cc#
.	.	.	8bnJ
8AA)	.	8e]	8cc#y)
8r	.	8r	8r
8r	.	24bb-L	8r
.	.	24bb-y	.
.	.	24bb-yJ	.
=125	=125	=125	=125
2.r	2.r	8bb-y	2.r
.	.	8r	.
.	.	24bb-yL	.
.	.	24bb-y	.
.	.	24bb-yJ	.
.	.	8bb-y	.
.	.	8r	.
.	.	24bb-yL	.
.	.	24bb-y	.
.	.	24bb-yJ	.
=126	=126	=126	=126
[4.e	[4.b-y [4.g	(4.bb-y	4r
.	.	.	8r
8e]	8b-y] 8g]	8cc#)	8r
8r	8r	8r	8r
8r	8r	8r	24fffL
.	.	.	24fff
.	.	.	24fffJ
!!LO:LB
=127	=127	=127	=127
2.r	2.r	2.r	8fff
.	.	.	8r
.	.	.	24fffL
.	.	.	24fff
.	.	.	24fffJ
.	.	.	8fff
.	.	.	8r
.	.	.	24fffL
.	.	.	24fff
.	.	.	24fffJ
=128	=128	=128	=128
(2.Bn	[4.g#	[4.f [4.d	(4.fff
.	(4g#y_	4f] 4d]	8gg#)
.	.	.	8r
.	8dd)	8ff	8gg#y
=129	=129	=129	=129
!!Error: measure 129, staff 4 is underfilled: adding token 4ryy at end of measure to complete its duration.
.	.	.	(<16qbb-y
8A)	8a	8.ffL	8.aaL)
8r	8r	.	.
.	.	16ee	16ggn
8r	8r	8ddJ	8ffJ
.	.	.	(<16qff
24B-L	4r	8.gL	8.eeL)
24B-y	.	.	.
24B-yJ	.	.	.
4ryy	.	.	.
.	.	16f	16dd
.	8r	8eJ	8cc#J
=130	=130	=130	=130
8B-y	2.r	[2.e	[2.cc#
8r	.	.	.
24B-yL	.	.	.
24B-y	.	.	.
24B-yJ	.	.	.
8B-y	.	.	.
8r	.	.	.
24B-yL	.	.	.
24B-y	.	.	.
24B-yJ	.	.	.
=131	=131	=131	=131
(4.B-y	4r	(8eL_	(8cc#yL_
.	.	8cc#	8ee
.	8r	8eeJ	8ggJ
8C#)	8r	8gg)	8bb-y)
8r	8r	8r	8r
8r	24fL	8r	8r
.	24f	.	.
.	24fJ	.	.
!!LO:LB
=132	=132	=132	=132
2.r	8f	[2.bn	[2.gg#
.	8r	.	.
.	24fL	.	.
.	24f	.	.
.	24fJ	.	.
.	8f	.	.
.	8r	.	.
.	24fL	.	.
.	24f	.	.
.	24fJ	.	.
=133	=133	=133	=133
2.r	(4.f	(8bL_	(8gg#yL_
.	.	8gg#	8bbn
.	.	8bbnJ	8dddJ
.	8G#)	8ddd)	8fff)
.	8r	8r	8r
.	8r	8r	8r
=134	=134	=134	=134
8A	8A	8d	8f
8r	8r	8r	8r
8r	8r	8r	8r
8AA	8A	8c#	8e
8r	8r	8r	8r
8r	8r	8r	8r
=135	=135	=135	=135
8D	8A	8d	8d
8r	8r	8r	8r
8r	8r	8r	24aaL
.	.	.	24aa
.	.	.	24aaJ
4r	4r	4r	8aa
.	.	.	8r
8r	8r	8r	24aaL
.	.	.	24aa
.	.	.	24aaJ
=136	=136	=136	=136
4r	4r	4r	8aa
.	.	.	8r
8r	8r	8d	8f
(4.A	[4.A	(8dL	(8fL
.	.	8e)	8g)
.	.	8c#J	8eJ
!!LO:LB
=137	=137	=137	=137
8D)	8A]	8f	8a
8r	8r	8r	8r
8r	8r	24aL	24aaL
.	.	24a	24aa
.	.	24aJ	24aaJ
4r	4r	8a	8aa
.	.	8r	8r
8r	8r	24aL	24aaL
.	.	24a	24aa
.	.	24aJ	24aaJ
=138	=138	=138	=138
4r	8r	8a	8aa
.	8r	8r	8r
8r	8F	8r	8d
4.AA	(8FL	4r	(8dL
.	8G)	.	8e)
.	8EJ	8r	8c#J
=139	=139	=139	=139
[2.DD	(2.F#	(4.d	8d
.	.	.	8r
.	.	.	8r
.	.	4.cn	8r
.	.	.	8r
.	.	.	24dddL
.	.	.	24ddd
.	.	.	24dddJ
=140	=140	=140	=140
2.DD_	2.G)	4.Bn	8ddd
.	.	.	8r
.	.	.	24dddL
.	.	.	24ddd
.	.	.	24dddJ
.	.	4.B-)	8ddd
.	.	.	8r
.	.	.	24dddL
.	.	.	24ddd
.	.	.	24dddJ
=141	=141	=141	=141
2.DD_	(4.G_	(4.B-y_	(2.ddd
.	4F#	4A	.
.	8E)	8G)	.
=142	=142	=142	=142
4DD]	4F#	4A	4dd)
8r	8r	8r	8r
4r	4r	4r	4r
8r	8r	8r	8r
==	==	==	==
*-	*-	*-	*-
!!!RDF**kern: > = above
!!!RDF**kern: < = below
